assets/icons/disk.svg

<svg width="25" height="24" viewBox="0 0 25 24" fill="none" xmlns="http://www.w3.org/2000/svg">
<path fill-rule="evenodd" clip-rule="evenodd" d="M2.13013 12.0005C2.13013 6.06343 6.94307 1.25049 12.8801 1.25049C18.8172 1.25049 23.6301 6.06343 23.6301 12.0005C23.6301 17.9376 18.8172 22.7505 12.8801 22.7505C6.94307 22.7505 2.13013 17.9376 2.13013 12.0005ZM10.8119 5.63699C11.0128 6.15143 10.7586 6.73134 10.2442 6.93225C9.13277 7.36628 8.24592 8.25313 7.81189 9.36453C7.61098 9.87898 7.03107 10.1332 6.51663 9.93225C6.00218 9.73134 5.748 9.15143 5.94891 8.63698C6.5862 7.00512 7.88476 5.70656 9.51662 5.06927C10.0311 4.86836 10.611 5.12254 10.8119 5.63699ZM12.8801 14.7505C11.3613 14.7505 10.1301 13.5193 10.1301 12.0005C10.1301 10.4817 11.3613 9.25049 12.8801 9.25049C14.3989 9.25049 15.6301 10.4817 15.6301 12.0005C15.6301 13.5193 14.3989 14.7505 12.8801 14.7505Z" fill="white"/>
</svg>

<svg xmlns="http://www.w3.org/2000/svg" width="25" height="24" fill="none" viewBox="0 0 25 24"><path fill="#fff" fill-rule="evenodd" d="M2.13 12c0-5.937 4.813-10.75 10.75-10.75S23.63 6.063 23.63 12s-4.813 10.75-10.75 10.75S2.13 17.938 2.13 12m8.682-6.363a1 1 0 0 1-.568 1.295 4.3 4.3 0 0 0-2.432 2.433 1 1 0 1 1-1.863-.728 6.3 6.3 0 0 1 3.568-3.568 1 1 0 0 1 1.295.568m2.068 9.114a2.75 2.75 0 1 1 0-5.5 2.75 2.75 0 0 1 0 5.5" clip-rule="evenodd"/></svg>
